dist/svgs/core-ui-icons/free/cil-color-fill.svg

<svg xmlns="http://www.w3.org/2000/svg" viewBox="0 0 512 512"><path d="M40 496h432a24.028 24.028 0 0024-24v-72a24.028 24.028 0 00-24-24H40a24.028 24.028 0 00-24 24v72a24.028 24.028 0 0024 24zm8-88h416v56H48zm-2.99-168.511a50.2 50.2 0 0036.2 61.07l158.5 40.524a50.174 50.174 0 0061.07-36.2l52.962-207.138L97.969 32.352l-12.01 46.974-58-14.827-7.926 31 58 14.828zm76.035-168.208l193.767 49.54L294.568 200H88.135zM286.387 232l-16.607 64.956a18.221 18.221 0 01-22.141 13.125l-158.5-40.525a18.22 18.22 0 01-13.124-22.14L80 231.82v.18zM420 352c37.5 0 68-32.3 68-72 0-16.181-9.341-38.514-28.559-68.277-13.285-20.576-26.39-37.021-26.941-37.711L420 158.37l-12.5 15.642c-.551.69-13.656 17.135-26.941 37.711C361.341 241.486 352 263.819 352 280c0 39.7 30.505 72 68 72zm0-141.441c17.658 24.641 36 55.426 36 69.441 0 22.056-16.149 40-36 40s-36-17.944-36-40c0-14.015 18.343-44.8 36-69.441z"/></svg>

<svg xmlns="http://www.w3.org/2000/svg" viewBox="0 0 512 512">
  <path fill="var(--ci-primary-color, currentColor)" d="M40,496H472a24.028,24.028,0,0,0,24-24V400a24.028,24.028,0,0,0-24-24H40a24.028,24.028,0,0,0-24,24v72A24.028,24.028,0,0,0,40,496Zm8-88H464v56H48Z" class="ci-primary"/>
  <path fill="var(--ci-primary-color, currentColor)" d="M45.01,239.489a50.2,50.2,0,0,0,36.2,61.07l158.5,40.524h0a50.174,50.174,0,0,0,61.07-36.2L353.742,97.745,97.969,32.352,85.959,79.326l-58-14.827-7.926,31,58,14.828ZM121.045,71.281l193.767,49.54L294.568,200H88.135ZM286.387,232,269.78,296.956a18.221,18.221,0,0,1-22.141,13.125h0l-158.5-40.525a18.22,18.22,0,0,1-13.124-22.14L80,231.82V232Z" class="ci-primary"/>
  <path fill="var(--ci-primary-color, currentColor)" d="M420,352c37.5,0,68-32.3,68-72,0-16.181-9.341-38.514-28.559-68.277-13.285-20.576-26.39-37.021-26.941-37.711L420,158.37l-12.5,15.642c-.551.69-13.656,17.135-26.941,37.711C361.341,241.486,352,263.819,352,280,352,319.7,382.505,352,420,352Zm0-141.441C437.658,235.2,456,265.985,456,280c0,22.056-16.149,40-36,40s-36-17.944-36-40C384,265.985,402.343,235.2,420,210.559Z" class="ci-primary"/>
</svg>
